usr/share/icons/biglinux-icons-material/scalable/mimetypes/application-octet-stream.svg

<svg width="24" height="24" viewBox="0 0 24 24" fill="none" xmlns="http://www.w3.org/2000/svg">
<rect x="1" y="1" width="22" height="22" rx="6.6" fill="url(#paint0_radial_3_1302)"/>
<path d="M7.70195 9.07387H7.22011V6.57697C7.22011 6.22653 7.22741 5.898 7.24201 5.59137L6.49735 6.22654L6.23452 5.89801L7.28582 5.06572H7.70196L7.70195 9.07387Z" fill="#555555"/>
<path d="M9.1037 7.05879C9.1037 6.37252 9.20591 5.86148 9.41033 5.52565C9.62935 5.17522 9.95059 5 10.374 5C10.8121 5 11.1333 5.17522 11.3377 5.52565C11.5568 5.86149 11.6663 6.37254 11.6663 7.05879C11.6663 7.74506 11.5568 8.26341 11.3377 8.61383C11.1333 8.94967 10.8121 9.11759 10.374 9.11759C9.95059 9.11759 9.62935 8.94967 9.41033 8.61383C9.20591 8.2634 9.1037 7.74505 9.1037 7.05879ZM11.1625 7.05879C11.1625 6.44554 11.0895 6.0221 10.9435 5.78848C10.8121 5.55486 10.6223 5.43805 10.374 5.43805C10.1404 5.43805 9.95059 5.55486 9.80457 5.78848C9.67316 6.0075 9.60745 6.43094 9.60745 7.05879C9.60745 7.70126 9.67316 8.1393 9.80457 8.37292C9.95058 8.59194 10.1404 8.70145 10.374 8.70145C10.6223 8.70145 10.8121 8.58464 10.9435 8.35102C11.0895 8.11741 11.1625 7.68665 11.1625 7.05879Z" fill="#555555"/>
<path d="M12.192 7.05879C12.192 6.37252 12.2942 5.86148 12.4986 5.52565C12.7176 5.17522 13.0389 5 13.4623 5C13.9004 5 14.2216 5.17522 14.426 5.52565C14.645 5.86149 14.7545 6.37254 14.7545 7.05879C14.7545 7.74506 14.645 8.26341 14.426 8.61383C14.2216 8.94967 13.9004 9.11759 13.4623 9.11759C13.0389 9.11759 12.7176 8.94967 12.4986 8.61383C12.2942 8.2634 12.192 7.74505 12.192 7.05879ZM14.2508 7.05879C14.2508 6.44554 14.1778 6.0221 14.0318 5.78848C13.9004 5.55486 13.7105 5.43805 13.4623 5.43805C13.2287 5.43805 13.0389 5.55486 12.8929 5.78848C12.7614 6.0075 12.6957 6.43094 12.6957 7.05879C12.6957 7.70126 12.7614 8.1393 12.8929 8.37292C13.0389 8.59194 13.2287 8.70145 13.4623 8.70145C13.7105 8.70145 13.9004 8.58464 14.0318 8.35102C14.1778 8.11741 14.2508 7.68665 14.2508 7.05879Z" fill="#555555"/>
<path d="M15.2806 7.05879C15.2806 6.37252 15.3828 5.86148 15.5872 5.52565C15.8062 5.17522 16.1275 5 16.5509 5C16.989 5 17.3102 5.17522 17.5146 5.52565C17.7336 5.86149 17.8431 6.37254 17.8431 7.05879C17.8431 7.74506 17.7336 8.26341 17.5146 8.61383C17.3102 8.94967 16.989 9.11759 16.5509 9.11759C16.1275 9.11759 15.8062 8.94967 15.5872 8.61383C15.3828 8.2634 15.2806 7.74505 15.2806 7.05879ZM17.3394 7.05879C17.3394 6.44554 17.2664 6.0221 17.1204 5.78848C16.989 5.55486 16.7992 5.43805 16.5509 5.43805C16.3173 5.43805 16.1275 5.55486 15.9815 5.78848C15.8501 6.0075 15.7843 6.43094 15.7843 7.05879C15.7843 7.70126 15.8501 8.1393 15.9815 8.37292C16.1275 8.59194 16.3173 8.70145 16.5509 8.70145C16.7992 8.70145 16.989 8.58464 17.1204 8.35102C17.2664 8.11741 17.3394 7.68665 17.3394 7.05879Z" fill="#555555"/>
<path d="M6.01556 12C6.01556 11.3137 6.11777 10.8027 6.32219 10.4669C6.54121 10.1164 6.86244 9.9412 7.28589 9.9412C7.72393 9.9412 8.04517 10.1164 8.24959 10.4669C8.46861 10.8027 8.57812 11.3137 8.57812 12C8.57812 12.6863 8.46861 13.2046 8.24959 13.555C8.04517 13.8909 7.72393 14.0588 7.28589 14.0588C6.86244 14.0588 6.54121 13.8909 6.32219 13.555C6.11777 13.2046 6.01556 12.6863 6.01556 12ZM8.07437 12C8.07437 11.3867 8.00136 10.9633 7.85535 10.7297C7.72394 10.4961 7.53412 10.3793 7.28589 10.3793C7.05227 10.3793 6.86245 10.4961 6.71643 10.7297C6.58502 10.9487 6.51931 11.3721 6.51931 12C6.51931 12.6425 6.58502 13.0805 6.71643 13.3141C6.86244 13.5331 7.05226 13.6427 7.28589 13.6427C7.53412 13.6427 7.72394 13.5258 7.85535 13.2922C8.00136 13.0586 8.07437 12.6279 8.07437 12Z" fill="#555555"/>
<path d="M10.7902 14.0154H10.3084V11.5185C10.3084 11.1681 10.3157 10.8395 10.3303 10.5329L9.58563 11.1681L9.32281 10.8395L10.3741 10.0072H10.7902L10.7902 14.0154Z" fill="#555555"/>
<path d="M12.192 12C12.192 11.3137 12.2942 10.8027 12.4986 10.4669C12.7176 10.1164 13.0389 9.9412 13.4623 9.9412C13.9004 9.9412 14.2216 10.1164 14.426 10.4669C14.645 10.8027 14.7545 11.3137 14.7545 12C14.7545 12.6863 14.645 13.2046 14.426 13.555C14.2216 13.8909 13.9004 14.0588 13.4623 14.0588C13.0389 14.0588 12.7176 13.8909 12.4986 13.555C12.2942 13.2046 12.192 12.6863 12.192 12ZM14.2508 12C14.2508 11.3867 14.1778 10.9633 14.0318 10.7297C13.9004 10.4961 13.7105 10.3793 13.4623 10.3793C13.2287 10.3793 13.0389 10.4961 12.8929 10.7297C12.7614 10.9487 12.6957 11.3721 12.6957 12C12.6957 12.6425 12.7614 13.0805 12.8929 13.3141C13.0389 13.5331 13.2287 13.6427 13.4623 13.6427C13.7105 13.6427 13.9004 13.5258 14.0318 13.2922C14.1778 13.0586 14.2508 12.6279 14.2508 12Z" fill="#555555"/>
<path d="M15.2806 12C15.2806 11.3137 15.3828 10.8027 15.5872 10.4669C15.8062 10.1164 16.1275 9.9412 16.5509 9.9412C16.989 9.9412 17.3102 10.1164 17.5146 10.4669C17.7336 10.8027 17.8431 11.3137 17.8431 12C17.8431 12.6863 17.7336 13.2046 17.5146 13.555C17.3102 13.8909 16.989 14.0588 16.5509 14.0588C16.1275 14.0588 15.8062 13.8909 15.5872 13.555C15.3828 13.2046 15.2806 12.6863 15.2806 12ZM17.3394 12C17.3394 11.3867 17.2664 10.9633 17.1204 10.7297C16.989 10.4961 16.7992 10.3793 16.5509 10.3793C16.3173 10.3793 16.1275 10.4961 15.9815 10.7297C15.8501 10.9487 15.7843 11.3721 15.7843 12C15.7843 12.6425 15.8501 13.0805 15.9815 13.3141C16.1275 13.5331 16.3173 13.6427 16.5509 13.6427C16.7992 13.6427 16.989 13.5258 17.1204 13.2922C17.2664 13.0586 17.3394 12.6279 17.3394 12Z" fill="#555555"/>
<path d="M6 16.9412C6 16.2549 6.10221 15.7439 6.30663 15.4081C6.52566 15.0576 6.84689 14.8824 7.27033 14.8824C7.70838 14.8824 8.02961 15.0576 8.23403 15.4081C8.45305 15.7439 8.56256 16.2549 8.56256 16.9412C8.56256 17.6275 8.45305 18.1458 8.23403 18.4962C8.02961 18.8321 7.70838 19 7.27033 19C6.84689 19 6.52566 18.8321 6.30663 18.4962C6.10221 18.1458 6 17.6275 6 16.9412ZM8.05881 16.9412C8.05881 16.3279 7.9858 15.9045 7.83979 15.6709C7.70838 15.4373 7.51856 15.3205 7.27033 15.3205C7.03671 15.3205 6.84689 15.4373 6.70087 15.6709C6.56946 15.8899 6.50375 16.3133 6.50375 16.9412C6.50375 17.5837 6.56946 18.0217 6.70087 18.2553C6.84688 18.4744 7.0367 18.5839 7.27033 18.5839C7.51856 18.5839 7.70838 18.4671 7.83979 18.2334C7.9858 17.9998 8.05881 17.5691 8.05881 16.9412Z" fill="#555555"/>
<path d="M9.08829 16.9412C9.08829 16.2549 9.1905 15.7439 9.39492 15.4081C9.61394 15.0576 9.93518 14.8824 10.3586 14.8824C10.7967 14.8824 11.1179 15.0576 11.3223 15.4081C11.5413 15.7439 11.6509 16.2549 11.6509 16.9412C11.6509 17.6275 11.5413 18.1458 11.3223 18.4962C11.1179 18.8321 10.7967 19 10.3586 19C9.93518 19 9.61394 18.8321 9.39492 18.4962C9.1905 18.1458 9.08829 17.6275 9.08829 16.9412ZM11.1471 16.9412C11.1471 16.3279 11.0741 15.9045 10.9281 15.6709C10.7967 15.4373 10.6068 15.3205 10.3586 15.3205C10.125 15.3205 9.93518 15.4373 9.78916 15.6709C9.65775 15.8899 9.59204 16.3133 9.59204 16.9412C9.59204 17.5837 9.65775 18.0217 9.78916 18.2553C9.93517 18.4744 10.125 18.5839 10.3586 18.5839C10.6068 18.5839 10.7967 18.4671 10.9281 18.2334C11.0741 17.9998 11.1471 17.5691 11.1471 16.9412Z" fill="#555555"/>
<path d="M13.863 18.9566H13.3811V16.4597C13.3811 16.1093 13.3884 15.7807 13.403 15.4741L12.6584 16.1093L12.3955 15.7807L13.4468 14.9485H13.863L13.863 18.9566Z" fill="#555555"/>
<path d="M15.265 16.9412C15.265 16.2549 15.3672 15.7439 15.5717 15.4081C15.7907 15.0576 16.1119 14.8824 16.5354 14.8824C16.9734 14.8824 17.2946 15.0576 17.499 15.4081C17.7181 15.7439 17.8276 16.2549 17.8276 16.9412C17.8276 17.6275 17.7181 18.1458 17.499 18.4962C17.2946 18.8321 16.9734 19 16.5354 19C16.1119 19 15.7907 18.8321 15.5717 18.4962C15.3672 18.1458 15.265 17.6275 15.265 16.9412ZM17.3238 16.9412C17.3238 16.3279 17.2508 15.9045 17.1048 15.6709C16.9734 15.4373 16.7836 15.3205 16.5354 15.3205C16.3017 15.3205 16.1119 15.4373 15.9659 15.6709C15.8345 15.8899 15.7688 16.3133 15.7688 16.9412C15.7688 17.5837 15.8345 18.0217 15.9659 18.2553C16.1119 18.4744 16.3017 18.5839 16.5354 18.5839C16.7836 18.5839 16.9734 18.4671 17.1048 18.2334C17.2508 17.9998 17.3238 17.5691 17.3238 16.9412Z" fill="#555555"/>
<defs>
<radialGradient id="paint0_radial_3_1302" cx="0" cy="0" r="1" gradientUnits="userSpaceOnUse" gradientTransform="translate(17.5 1) rotate(116.565) scale(24.5967)">
<stop stop-color="#F4F4F4"/>
<stop offset="1" stop-color="#BBBBBB"/>
</radialGradient>
</defs>
</svg>

<svg xmlns="http://www.w3.org/2000/svg" width="24" height="24" fill="none"><rect width="22" height="22" x="1" y="1" fill="url(#a)" rx="6.6"/><path fill="#555" d="M7.702 9.074H7.22V6.577c0-.35.007-.679.022-.986l-.745.636-.262-.329 1.05-.832h.417v4.008ZM9.104 7.059c0-.686.102-1.198.306-1.533.22-.35.54-.526.964-.526.438 0 .76.175.964.526.219.335.328.847.328 1.533 0 .686-.11 1.204-.328 1.555-.205.336-.526.504-.964.504-.423 0-.745-.168-.964-.504-.204-.35-.306-.869-.306-1.555Zm2.059 0c0-.613-.074-1.037-.22-1.27-.13-.234-.32-.351-.569-.351-.234 0-.423.117-.57.35-.13.22-.197.643-.197 1.27 0 .643.066 1.081.198 1.315.146.219.335.328.569.328.248 0 .438-.116.57-.35.145-.234.218-.664.218-1.292ZM12.192 7.059c0-.686.102-1.198.307-1.533.219-.35.54-.526.963-.526.438 0 .76.175.964.526.219.335.329.847.329 1.533 0 .686-.11 1.204-.329 1.555-.204.336-.526.504-.964.504-.423 0-.744-.168-.963-.504-.205-.35-.307-.869-.307-1.555Zm2.059 0c0-.613-.073-1.037-.22-1.27-.13-.234-.32-.351-.569-.351-.233 0-.423.117-.57.35-.13.22-.196.643-.196 1.27 0 .643.065 1.081.197 1.315.146.219.336.328.57.328.248 0 .437-.116.569-.35.146-.234.219-.664.219-1.292ZM15.28 7.059c0-.686.103-1.198.307-1.533.22-.35.54-.526.964-.526.438 0 .76.175.964.526.219.335.328.847.328 1.533 0 .686-.11 1.204-.328 1.555-.205.336-.526.504-.964.504-.423 0-.745-.168-.964-.504-.204-.35-.306-.869-.306-1.555Zm2.06 0c0-.613-.074-1.037-.22-1.27-.131-.234-.32-.351-.57-.351-.233 0-.422.117-.569.35-.13.22-.197.643-.197 1.27 0 .643.066 1.081.197 1.315.147.219.336.328.57.328.248 0 .438-.116.57-.35.145-.234.218-.664.218-1.292ZM6.016 12c0-.686.102-1.197.306-1.533.22-.35.54-.526.964-.526.438 0 .76.175.964.526.219.336.328.847.328 1.533 0 .686-.11 1.205-.328 1.555-.205.336-.526.504-.964.504-.424 0-.745-.168-.964-.504-.204-.35-.306-.869-.306-1.555Zm2.058 0c0-.613-.073-1.037-.219-1.27-.131-.234-.32-.35-.57-.35-.233 0-.423.116-.569.35-.131.219-.197.642-.197 1.27 0 .643.066 1.08.197 1.314.146.22.336.329.57.329.248 0 .438-.117.57-.35.145-.234.218-.665.218-1.293ZM10.79 14.015h-.482v-2.497c0-.35.008-.679.022-.985l-.744.635-.263-.329 1.051-.832h.416v4.008ZM12.192 12c0-.686.102-1.197.307-1.533.219-.35.54-.526.963-.526.438 0 .76.175.964.526.219.336.329.847.329 1.533 0 .686-.11 1.205-.329 1.555-.204.336-.526.504-.964.504-.423 0-.744-.168-.963-.504-.205-.35-.307-.869-.307-1.555Zm2.059 0c0-.613-.073-1.037-.22-1.27-.13-.234-.32-.35-.569-.35-.233 0-.423.116-.57.35-.13.219-.196.642-.196 1.27 0 .643.065 1.08.197 1.314.146.22.336.329.57.329.248 0 .437-.117.569-.35.146-.234.219-.665.219-1.293ZM15.28 12c0-.686.103-1.197.307-1.533.22-.35.54-.526.964-.526.438 0 .76.175.964.526.219.336.328.847.328 1.533 0 .686-.11 1.205-.328 1.555-.205.336-.526.504-.964.504-.423 0-.745-.168-.964-.504-.204-.35-.306-.869-.306-1.555Zm2.06 0c0-.613-.074-1.037-.22-1.27-.131-.234-.32-.35-.57-.35-.233 0-.422.116-.569.35-.13.219-.197.642-.197 1.27 0 .643.066 1.08.197 1.314.147.22.336.329.57.329.248 0 .438-.117.57-.35.145-.234.218-.665.218-1.293ZM6 16.941c0-.686.102-1.197.307-1.533.219-.35.54-.526.963-.526.438 0 .76.176.964.526.219.336.329.847.329 1.533 0 .687-.11 1.205-.329 1.555-.204.336-.526.504-.964.504-.423 0-.744-.168-.963-.504-.205-.35-.307-.868-.307-1.555Zm2.059 0c0-.613-.073-1.036-.22-1.27-.13-.234-.32-.35-.569-.35-.233 0-.423.116-.57.35-.13.219-.196.642-.196 1.27 0 .643.065 1.08.197 1.314.146.22.336.329.57.329.248 0 .437-.117.569-.35.146-.234.219-.665.219-1.293ZM9.088 16.941c0-.686.103-1.197.307-1.533.219-.35.54-.526.964-.526.438 0 .759.176.963.526.22.336.329.847.329 1.533 0 .687-.11 1.205-.329 1.555-.204.336-.525.504-.963.504-.424 0-.745-.168-.964-.504-.204-.35-.307-.868-.307-1.555Zm2.06 0c0-.613-.074-1.036-.22-1.27-.131-.234-.321-.35-.57-.35-.233 0-.423.116-.569.35-.131.219-.197.642-.197 1.27 0 .643.066 1.08.197 1.314.146.22.336.329.57.329.248 0 .438-.117.57-.35.145-.234.218-.665.218-1.293ZM13.863 18.957h-.482V16.46c0-.35.007-.68.022-.986l-.745.635-.262-.328 1.05-.833h.417v4.009ZM15.265 16.941c0-.686.102-1.197.307-1.533.219-.35.54-.526.963-.526.438 0 .76.176.964.526.22.336.329.847.329 1.533 0 .687-.11 1.205-.329 1.555-.204.336-.526.504-.964.504-.423 0-.744-.168-.963-.504-.205-.35-.307-.868-.307-1.555Zm2.059 0c0-.613-.073-1.036-.22-1.27-.13-.234-.32-.35-.569-.35-.233 0-.423.116-.57.35-.13.219-.196.642-.196 1.27 0 .643.066 1.08.197 1.314.146.22.336.329.57.329.248 0 .437-.117.569-.35.146-.234.219-.665.219-1.293Z"/><defs><radialGradient id="a" cx="0" cy="0" r="1" gradientTransform="rotate(116.565 8.441 5.908) scale(24.5967)" gradientUnits="userSpaceOnUse"><stop stop-color="#F4F4F4"/><stop offset="1" stop-color="#BBB"/></radialGradient></defs></svg>
